X:089
T: Quick Step
N: O'Farrell's Pocket Companion v.1 (Sky ed. p.23)
D: O'Sullivan Meets O'Farrell track 6a
M: 2/4
L: 1/8
R: polka
Q: 360
K: D
A|: df fa|ge e>g|fd d>f|e/d/c/B/ A2|
df fa|ge eg|fd c/d/e/c/ |d2 d2 :|
fd f/d/f/d/ |ge e>g|fd df| e/d/c/B/ A2|
fd f/d/f/d/ |ge e>g|fd c/d/e/c/ |d2 d2 :|
